resources/icons/16px/high-voltage-pole.svg

<svg width="16" height="16" viewBox="0 0 16 16" fill="none" xmlns="http://www.w3.org/2000/svg">
<path fill-rule="evenodd" clip-rule="evenodd" d="M6 0C5.44772 0 5 0.447715 5 1V4H3V3H3.5C3.77614 3 4 2.77614 4 2.5C4 2.22386 3.77614 2 3.5 2H1.5C1.22386 2 1 2.22386 1 2.5C1 2.77614 1.22386 3 1.5 3H2V4C1.44772 4 1 4.44772 1 5C1 5.55228 1.44772 6 2 6L2 7H1.5C1.22386 7 1 7.22386 1 7.5C1 7.77614 1.22386 8 1.5 8H3.5C3.77614 8 4 7.77614 4 7.5C4 7.22386 3.77614 7 3.5 7H3V6H5V15C5 15.5523 5.44772 16 6 16C6.55228 16 7 15.5523 7 15V6H9V15C9 15.5523 9.44771 16 10 16C10.5523 16 11 15.5523 11 15V6H13V7H12.5C12.2239 7 12 7.22386 12 7.5C12 7.77614 12.2239 8 12.5 8H14.5C14.7761 8 15 7.77614 15 7.5C15 7.22386 14.7761 7 14.5 7H14L14 6C14.5523 6 15 5.55228 15 5C15 4.44772 14.5523 4 14 4L14 3H14.5C14.7761 3 15 2.77614 15 2.5C15 2.22386 14.7761 2 14.5 2H12.5C12.2239 2 12 2.22386 12 2.5C12 2.77614 12.2239 3 12.5 3H13V4H11V1C11 0.447715 10.5523 0 10 0H6ZM7 2V4H9V2H7Z" fill="black"/>
</svg>

<svg xmlns="http://www.w3.org/2000/svg" viewBox="0 0 16 16">
  <path d="M6 0a1 1 0 0 0-1 1v3H3V3h.5a.5.5 0 0 0 0-1h-2a.5.5 0 0 0 0 1H2v1a1 1 0 0 0 0 2v1h-.5a.5.5 0 0 0 0 1h2a.5.5 0 0 0 0-1H3V6h2v9a1 1 0 1 0 2 0V6h2v9a1 1 0 1 0 2 0V6h2v1h-.5a.5.5 0 0 0 0 1h2a.5.5 0 0 0 0-1H14V6a1 1 0 1 0 0-2V3h.5a.5.5 0 0 0 0-1h-2a.5.5 0 0 0 0 1h.5v1h-2V1a1 1 0 0 0-1-1zm1 2v2h2V2z"/>
</svg>
